public/icons/facebook.svg

<svg width="56" height="56" viewBox="0 0 56 56" fill="none" xmlns="http://www.w3.org/2000/svg">
<g clip-path="url(#clip0_82_7410)">
<path d="M55.0112 27.9999C55.0112 13.081 42.9171 0.98687 27.9983 0.98687C13.0794 0.98687 0.985352 13.081 0.985352 27.9999C0.985352 41.4828 10.8636 52.6582 23.7775 54.6847V35.8083H16.9187V27.9999H23.7775V22.0486C23.7775 15.2784 27.8103 11.5388 33.9807 11.5388C36.9361 11.5388 40.0274 12.0664 40.0274 12.0664V18.7141H36.6212C33.2655 18.7141 32.219 20.7964 32.219 22.9327V27.9999H39.7109L38.5132 35.8083H32.219V54.6847C45.1329 52.6582 55.0112 41.4828 55.0112 27.9999Z" fill="#1877F2"/>
<path d="M38.5125 35.8084L39.7101 28H32.2182V22.9327C32.2182 20.7965 33.2647 18.7142 36.6204 18.7142H40.0267V12.0665C40.0267 12.0665 36.9353 11.5389 33.9799 11.5389C27.8096 11.5389 23.7767 15.2785 23.7767 22.0486V28H16.918V35.8084H23.7767V54.6848C25.152 54.9006 26.5616 55.0129 27.9975 55.0129C29.4334 55.0129 30.843 54.9006 32.2182 54.6848V35.8084H38.5125Z" fill="white"/>
</g>
<defs>
<clipPath id="clip0_82_7410">
<rect width="54.0258" height="54.026" fill="white" transform="translate(0.986816 0.987061)"/>
</clipPath>
</defs>
</svg>

<svg xmlns="http://www.w3.org/2000/svg" width="56" height="56" fill="none"><g clip-path="url(#a)"><path fill="#1877F2" d="M55.011 28C55.011 13.08 42.917.987 27.998.987S.985 13.08.985 28c0 13.483 9.879 24.658 22.793 26.685V35.808h-6.86V28h6.86v-5.951c0-6.77 4.032-10.51 10.203-10.51 2.955 0 6.046.527 6.046.527v6.648h-3.406c-3.355 0-4.402 2.082-4.402 4.219V28h7.492l-1.198 7.808H32.22v18.877C45.133 52.658 55.011 41.483 55.011 28"/><path fill="#fff" d="M38.513 35.808 39.71 28h-7.492v-5.067c0-2.136 1.047-4.219 4.402-4.219h3.407v-6.647s-3.092-.528-6.047-.528c-6.17 0-10.203 3.74-10.203 10.51V28h-6.859v7.808h6.859v18.877a27.2 27.2 0 0 0 8.441 0V35.808z"/></g><defs><clipPath id="a"><path fill="#fff" d="M.987.987h54.026v54.026H.987z"/></clipPath></defs></svg>
